img/svg/production.svg

<svg width="38.000000" height="34.000000" viewBox="0 0 38 34" fill="none" xmlns="http://www.w3.org/2000/svg" xmlns:xlink="http://www.w3.org/1999/xlink">
	<desc>
			Created with Pixso.
	</desc>
	<defs/>
	<path d="M36.3301 9.63026L35.7417 9.63026L35.7417 5.38065C35.7417 5.03702 35.4922 4.75842 35.1851 4.75842C34.8774 4.75842 34.6284 5.03702 34.6284 5.38065L34.6284 9.63026L34.04 9.63026C33.1191 9.63026 32.3701 10.4676 32.3701 11.4969L32.3701 14.4763C29.0103 14.4763 26.542 14.4755 24.7266 14.4749L24.7251 14.4749C19.7769 14.4734 19.6768 14.4733 19.5815 14.4951C19.5742 14.4968 19.5664 14.4987 19.5566 14.5007L19.5566 2.86218C19.5566 1.97017 20.2061 1.24443 21.0039 1.24443L33.1812 1.24443C33.8877 1.24443 34.4873 1.80798 34.6069 2.58467C34.6592 2.92332 34.9473 3.15039 35.2505 3.09215C35.5532 3.03374 35.7563 2.71193 35.7041 2.37329C35.4922 0.998032 34.4312 0 33.1812 0L21.0039 0C20.1929 0 19.4697 0.424011 19 1.08356C18.5303 0.424011 17.8071 0 16.9961 0L4.81885 0C3.40723 0 2.2583 1.284 2.2583 2.86218L2.2583 9.63026L1.66992 9.63026C0.749023 9.63026 0 10.4676 0 11.4969L0 23.0395C0 24.755 1.24854 26.1506 2.7832 26.1506L4.5166 26.1506L4.5166 32.2521C4.5166 33.2159 5.21826 34 6.08057 34C6.89697 34 7.58252 33.2866 7.64014 32.3759L8.03613 26.1505L11.2075 26.1505C11.5151 26.1505 11.7642 25.8719 11.7642 25.5283C11.7642 25.1847 11.5151 24.9061 11.2075 24.9061L2.7832 24.9061C1.8623 24.9061 1.11328 24.0687 1.11328 23.0394L1.11328 11.4969C1.11328 11.1538 1.36279 10.8747 1.66992 10.8747L3.95996 10.8747C4.22852 10.8747 4.45361 11.0884 4.50537 11.3716C4.5127 11.4121 4.5166 11.454 4.5166 11.4969L4.5166 14.4763L3.62012 14.4763C2.87207 14.4763 2.26367 15.1566 2.26367 15.9928L2.26367 19.5854C2.26367 20.4216 2.87207 21.1018 3.62012 21.1018L34.3799 21.1018C35.1279 21.1018 35.7363 20.4215 35.7363 19.5853L35.7363 15.9927C35.7363 15.1565 35.1279 14.4762 34.3799 14.4762L33.4834 14.4762L33.4834 11.4968C33.4834 11.4539 33.4873 11.412 33.4946 11.3716C33.5464 11.0882 33.7715 10.8746 34.04 10.8746L36.3301 10.8746C36.6372 10.8746 36.8867 11.1537 36.8867 11.4968L36.8867 23.0394C36.8867 24.0687 36.1377 24.9061 35.2168 24.9061L13.8052 24.9061C13.498 24.9061 13.2485 25.1847 13.2485 25.5283C13.2485 25.8719 13.498 26.1505 13.8052 26.1505L29.9639 26.1505L30.3599 32.3759C30.4175 33.2866 31.1025 34 31.9194 34C32.7817 34 33.4834 33.2159 33.4834 32.2521L33.4834 26.1506L35.2168 26.1506C36.7515 26.1506 38 24.755 38 23.0395L38 11.4969C38 10.4676 37.251 9.63026 36.3301 9.63026ZM3.32031 9.63734L3.91113 9.63734C4.83496 9.63734 5.58691 10.4754 5.58691 11.5057L5.58691 14.4878C8.9707 14.4878 11.4551 14.487 13.2808 14.4865L13.2808 14.4865C18.2559 14.485 18.3403 14.4849 18.4199 14.5057C18.4272 14.5077 18.4351 14.5098 18.4468 14.5122L18.4468 2.86313C18.4468 1.97031 17.7949 1.2439 16.9941 1.2439L4.77295 1.2439C3.97217 1.2439 3.32031 1.97031 3.32031 2.86313L3.32031 9.63734ZM3.32031 19.6299L3.32031 16.0288C3.32031 15.8784 3.43018 15.7561 3.56494 15.7561L18.2021 15.7561C18.3369 15.7561 18.4468 15.8784 18.4468 16.0288L18.4468 19.9024L3.56494 19.9024C3.43018 19.9024 3.32031 19.7802 3.32031 19.6299ZM34.6797 19.6299C34.6797 19.7802 34.5698 19.9024 34.4351 19.9024L19.5532 19.9024L19.5532 16.0287C19.5532 15.8783 19.6631 15.7561 19.7979 15.7561L34.4351 15.7561C34.5698 15.7561 34.6797 15.8784 34.6797 16.0287L34.6797 19.6299ZM6.6748 32.2862L7.00977 26.1219L5.90283 26.1219L5.90283 32.2504C5.90283 32.5292 6.07617 32.7561 6.28955 32.7561C6.49121 32.7561 6.66064 32.5497 6.6748 32.2862ZM31.7104 32.7561C31.9238 32.7561 32.0972 32.5293 32.0972 32.2504L32.0972 26.1219L30.9902 26.1219L31.3252 32.2862C31.3394 32.5497 31.5088 32.7561 31.7104 32.7561Z" clip-rule="evenodd" fill="#000000" fill-opacity="1.000000" fill-rule="evenodd"/>
</svg>

<svg width="38" height="34" fill="none" xmlns="http://www.w3.org/2000/svg"><path d="M36.33 9.63h-.588V5.38c0-.343-.25-.622-.557-.622-.308 0-.557.279-.557.623v4.25h-.588c-.92 0-1.67.837-1.67 1.866v2.98l-7.643-.002h-.002c-4.948-.002-5.048-.002-5.144.02l-.024.006V2.862c0-.892.65-1.618 1.447-1.618H33.18c.707 0 1.306.564 1.426 1.34.052.34.34.566.644.508.302-.058.505-.38.453-.719C35.492.998 34.431 0 33.181 0H21.004C20.193 0 19.47.424 19 1.084 18.53.424 17.807 0 16.996 0H4.82C3.408 0 2.26 1.284 2.26 2.862V9.63h-.59c-.92 0-1.67.838-1.67 1.867V23.04c0 1.715 1.249 3.11 2.783 3.11h1.734v6.102c0 .964.701 1.748 1.564 1.748.816 0 1.502-.713 1.56-1.624l.395-6.225h3.171c.308 0 .557-.28.557-.623 0-.343-.249-.622-.556-.622H2.782c-.92 0-1.67-.837-1.67-1.867V11.497c0-.343.25-.622.557-.622h2.29c.269 0 .494.213.545.497.008.04.012.082.012.125v2.98H3.62c-.748 0-1.356.68-1.356 1.516v3.592c0 .837.608 1.517 1.356 1.517h30.76c.748 0 1.356-.68 1.356-1.517v-3.592c0-.837-.608-1.517-1.356-1.517h-.897v-2.98c0-.042.004-.084.012-.124.051-.284.277-.497.545-.497h2.29c.307 0 .557.279.557.622v11.542c0 1.03-.75 1.867-1.67 1.867H13.805c-.307 0-.556.279-.556.622 0 .344.249.623.556.623h16.159l.396 6.225c.058.91.742 1.624 1.56 1.624.862 0 1.563-.784 1.563-1.748v-6.101h1.734c1.535 0 2.783-1.396 2.783-3.111V11.497c0-1.03-.749-1.867-1.67-1.867zm-33.01.007h.591c.924 0 1.676.838 1.676 1.869v2.982l7.694-.002c4.975-.001 5.06-.001 5.139.02a.39.39 0 00.027.006V2.863c0-.893-.652-1.62-1.453-1.62H4.773c-.8 0-1.453.727-1.453 1.62v6.774zm0 9.993v-3.601c0-.15.11-.273.245-.273h14.637c.135 0 .245.122.245.273v3.873H3.565c-.135 0-.245-.122-.245-.272zm31.36 0c0 .15-.11.272-.245.272H19.553V16.03c0-.15.11-.273.245-.273h14.637c.135 0 .245.122.245.273v3.6zM6.675 32.286l.335-6.164H5.903v6.128c0 .28.173.506.387.506.201 0 .37-.206.385-.47zm25.035.47c.214 0 .387-.227.387-.506v-6.128H30.99l.335 6.164c.014.264.184.47.385.47z" clip-rule="evenodd" fill="#000" fill-rule="evenodd"/></svg>
